X:1
T:24. The Pine Forest 25. Bird in Space
T:For Children, Book 2
T:24. The Pine Forest 
T:Béla Bartók Revised and Arranged by the Composer, January 1945 
T:For Children Nr 24 , Sz 42 
T:Book 2 (after Slovakian Folksongs)
T:25. Bird in Space
T:Oli 2020
C:Bartók, Béla
Z:Oli 2020
%%score { ( 1 3 ) | ( 2 4 5 ) }
L:1/8
Q:1/4=80
M:2/4
K:C
V:1 treble nm="Piano"
V:3 treble 
V:2 bass 
V:4 bass 
V:5 bass 
V:1
"^Poco andante"!p!!<(! (!3!F<!3!FED | !2!A<A d2)!<)! |!>(! (!4!c<!4!cBA | G<G !4!A2)!>)! | %4
 (!2!F D3) |!<(! (.!2!G<.A!<)! !tenuto!._B2 |!>(! A4)!>)! | %7
!mf!"^sostenuto"[Q:1/4=95]"^T" !4!A !5!A3 |"_dim." (.G.F !tenuto!.E2 | D4- | D4) | %11
"^a tempo"[Q:1/4=80]"^T" (!3!F<!p!!3!FED | !2!A<A"_dim." d2) | (!4!c<!4!cBA | G<G !4!A2) | %15
 (!2!F D3) |!p! (.G.A !tenuto!._B2 | [FA]4) |"_sonore"!mf! z4 | A4- | A4 |] %21
[M:2/4][Q:1/4=92]"^Andante""^dolce"!p! (!3!dded | A4) | (!4!a(!4!a!tenuto!!3!g)!tenuto!!3!g | a4) | %25
 (gfe!3!d | A4) |!<(! ((!3!d!3!dcd | e4))!<)! |!>(! (c d3 | A4-!>)! | A4) | (!3!dded | A4) | %34
 (aagg | a4) | (gfed | A4) |!>(! (ddcd!>)! |!pp!"_sostenuto"[Q:1/4=102]"^T" e4- | e4) | %41
"^tranquillo"[Q:1/4=72]"^T"!p! (c d3) | A4 | (c d3) | A4- | A4- | A4 |] %47
V:2
 z2 !tenuto!.[D,F,A,]2 | z2 !tenuto!.[D,F,A,]2 | z2 !tenuto!.[F,A,C]2 | z2 !tenuto!.[A,,C,E,]2 | %4
 z2 !tenuto!.!5!!1![_B,,F,]2 | z2 (!4!!2![C,E,]2 | [D,F,]4) | z2 !>!!5!!2!!1![G,,C,F,]2- | %8
 [G,,C,F,]4- |!ped! [G,,C,F,]2 [G,C]2- | [G,C]2!ped-up! [G,C]2- | [G,C]4 | (!2!!1![CF]2 !5!G,2 | %13
 [CF]2 G,2 | [CF]2 G,2 | !1!C2 !4!!2![G,B,]2) | z2 (!5!!2!!1![F,-_DE]2 | !3![F,C]4) | %18
 !1!A,, !1!A,,3- | A,,4 |"_attaca (ad libitum)" A,,4 |][M:2/4] z4 | F4- | F4 | E4- | E4 | %26
 ([D^F]4- | F2 !1!G2) | (!1!^G!2!E!4!B,^G,) | (!1!=G!2!E_B,=G,) |!ped! z2 (.!1!^F.!2!D | %31
 .!3!A,.!1!D,.A,,.D,,)!ped-up! | z4 | ^F4- | F4 | ^F4- | F4 | G4- | G4 | %39
!ped! (.!2!^G.!1!E.!2!^C.!4!^G, | .!1!^C,.!2!^G,, !fermata!!5!^C,,2)!ped-up! | %41
 z2 (!4!!3!!1![G,_B,E]2- | [G,B,E]2 !5!!2!!1![^F,=B,D]2) | z2 (!5!!3!!1![F,_B,_E]2- | %44
 [F,-B,E]2 !2!!1![F,=B,D]2) | !5!!3!!1![E,A,^C]2 !3!!1![CE]2- | [CE]4 |] %47
V:3
 x4 | x4 | x4 | x4 | x4 | x4 | x4 | x4 | x4 | x4 | x4 | x4 | x4 | x4 | x4 | x4 | x4 | x4 | %18
 (!5!A !5!A3- | GF E2 | D4) |][M:2/4] x4 | x4 | x4 | x4 | x4 | x4 | x4 | x x x2 | x4 | x x x2 | %31
 x4 | x4 | x4 | x4 | x4 | x4 | x4 | x4 | x4 | x4 | x2!>(! x2 | x2!>)! x2 | x2!>(! x2 | x2!>)! x2 | %45
 x4 | x4 |] %47
V:4
 x4 | x4 | x4 | x4 | x4 | x4 | x4 | x4 | x4 | x4 | x4 | x4 | x4 | x4 | x4 | x4 | x4 | x4 | x4 | %19
 G,,F,, E,,2 | D,,4 |][M:2/4] x4 | (!1!F!2!E!2!ED- | D4) | (!1!E!2!D!2!DC- | C4) | !1
2
!DCC_B,- | %27
 [B,D]4 | x4 | x4 | x4 | x4 | x4 | !1!^F!2!E!2!E-C- | [CE]4 | !1!^F!2!D!2!D-B,- | [B,D]4 | %37
 (!1!G!2!DD_B,- | B,4) | x4 | x4 | x4 | x4 | x4 | x4 | x4 | x4 |] %47
V:5
 x4 | x4 | x4 | x4 | x4 | x4 | x4 | x4 | x4 | x4 | x4 | x4 | x4 | x4 | x4 | x4 | x4 | x4 | x4 | %19
 x4 | x4 |][M:2/4] x4 | x4 | x4 | x4 | x4 | x4 | x4 | x4 | x4 | x4 | x4 | x4 | x2 E2 | x4 | x2 D2 | %36
 x4 | x2 D2- | D4 | x4 | x4 | x4 | x4 | x4 | x4 | x4 | x4 |] %47

